client/public/assets/icons/action/clone.svg

<?xml version="1.0"?><svg xmlns="http://www.w3.org/2000/svg" width="52" height="52" viewBox="0 0 52 52"><g fill="#fff"><path d="m46 2h-28c-2.2 0-4 1.8-4 4v2.5c0 0.8 0.7 1.5 1.5 1.5h18.5c4.4 0 8 3.6 8 8v18.5c0 0.8 0.7 1.5 1.5 1.5h2.5c2.2 0 4-1.8 4-4v-28c0-2.2-1.8-4-4-4z m-12 12h-28c-2.2 0-4 1.8-4 4v28c0 2.2 1.8 4 4 4h28c2.2 0 4-1.8 4-4v-28c0-2.2-1.8-4-4-4z m-4 27c0 0.6-0.4 1-1 1h-18c-0.6 0-1-0.4-1-1v-2c0-0.6 0.4-1 1-1h18c0.6 0 1 0.4 1 1v2z m0-8c0 0.6-0.4 1-1 1h-18c-0.6 0-1-0.4-1-1v-2c0-0.6 0.4-1 1-1h18c0.6 0 1 0.4 1 1v2z m0-8c0 0.6-0.4 1-1 1h-18c-0.6 0-1-0.4-1-1v-2c0-0.6 0.4-1 1-1h18c0.6 0 1 0.4 1 1v2z"></path></g></svg>

<?xml version="1.0" encoding="utf-8"?>
<!-- Generator: Adobe Illustrator 18.1.1, SVG Export Plug-In . SVG Version: 6.00 Build 0)  -->
<svg version="1.1" id="Layer_1" xmlns="http://www.w3.org/2000/svg" xmlns:xlink="http://www.w3.org/1999/xlink" x="0px" y="0px"
	 width="52px" height="52px" viewBox="0 0 52 52" enable-background="new 0 0 52 52" xml:space="preserve">
<g>
	<path fill="#FFFFFF" d="M46,2H18c-2.2,0-4,1.8-4,4v2.5c0,0.8,0.7,1.5,1.5,1.5H34c4.4,0,8,3.6,8,8v18.5c0,0.8,0.7,1.5,1.5,1.5H46
		c2.2,0,4-1.8,4-4V6C50,3.8,48.2,2,46,2z"/>
	<path fill="#FFFFFF" d="M34,14H6c-2.2,0-4,1.8-4,4v28c0,2.2,1.8,4,4,4h28c2.2,0,4-1.8,4-4V18C38,15.8,36.2,14,34,14z M30,41
		c0,0.6-0.4,1-1,1H11c-0.6,0-1-0.4-1-1v-2c0-0.6,0.4-1,1-1h18c0.6,0,1,0.4,1,1V41z M30,33c0,0.6-0.4,1-1,1H11c-0.6,0-1-0.4-1-1v-2
		c0-0.6,0.4-1,1-1h18c0.6,0,1,0.4,1,1V33z M30,25c0,0.6-0.4,1-1,1H11c-0.6,0-1-0.4-1-1v-2c0-0.6,0.4-1,1-1h18c0.6,0,1,0.4,1,1V25z"
		/>
</g>
</svg>
